assets/images/afrikons/location-outline.svg

<svg viewBox="0 0 50 50" xmlns="http://www.w3.org/2000/svg"><path d="m0 0h50v50h-50z" fill="none"/><path d="m38.51 5.6a19.1 19.1 0 0 0 -28.88 24.85l13.87 18.79a1.86 1.86 0 0 0 3 0l13.87-18.79a19 19 0 0 0 -1.86-24.85zm.58 23.9-13.88 18.8a.27.27 0 0 1 -.42 0l-13.88-18.8a17.51 17.51 0 0 1 26.47-22.77 17.4 17.4 0 0 1 1.71 22.77z" fill="#0a0a0a"/></svg>

<svg xmlns="http://www.w3.org/2000/svg" viewBox="0 0 50 50"><defs><style>.cls-1{fill:none;}.cls-2{fill:#0a0a0a;}</style></defs><title>location-outline</title><g id="Layer_2" data-name="Layer 2"><g id="Layer_1-2" data-name="Layer 1"><rect class="cls-1" width="50" height="50"/><path class="cls-2" d="M38.51,5.6A19.1,19.1,0,0,0,9.63,30.45L23.5,49.24h0a1.86,1.86,0,0,0,3,0L40.37,30.45A19,19,0,0,0,38.51,5.6Zm.58,23.9L25.21,48.3a.27.27,0,0,1-.42,0L10.91,29.5A17.51,17.51,0,0,1,37.38,6.73,17.4,17.4,0,0,1,39.09,29.5Z"/></g></g></svg>
